X:1
T:Title
%%score { 1 | 2 }
L:1/8
M:2/4
K:F
V:1 treble nm="Grand Piano"
V:2 bass 
V:1
 z2 z[Q:1/4=80] C | FA AC | FA cd | c/c/A FA |[M:3/8] [FA] [EG]2 |[M:1/8] C |[M:2/4] FA AC | %7
 FA c[Fd] | [Fc]/[Fc]/[CFA] [A,F][CFA] |[M:7/16] [B,EG]-<[B,EG][A,CF]3/2 |[M:1/8] [Fc] | %11
[M:2/4] [Fd]/[Fd]/[Fd] [FB][Fd] | d c2 B | A/A/c cA |[M:3/8] [FA] [EG]2 |[M:1/8] [FA] | %16
[M:2/4] [GB][GB] [FA][FA] |[M:9/16] [Fd][Fd]/-[Fd]/c-c/F |[M:2/4] [FA][Fc] [CFA][A,F] | %19
[M:7/16] [B,EG]-<[B,EG][A,CF]3/2 |] %20
V:2
 z2 z [F,A,] | [F,A,C][F,CF] [F,CF][F,A,] | [F,A,C][F,CF] [F,A,F][F,B,F] | %3
 [F,A,F]/[F,A,F]/[F,CF] [A,C][F,CF] |[M:3/8] [C,C] [C,C]2 |[M:1/8] [E,B,] | %6
[M:2/4] [F,A,C][F,CF] [F,CF][F,A,] | [F,A,C][F,CF] [F,A,F][B,,B,] | [C,A,]/[C,A,]/C, C,C, | %9
[M:7/16] C,-<C,F,3/2 |[M:1/8] [F,A,] |[M:2/4] [B,,B,]/[B,,B,]/[B,,B,] [D,B,][B,,B,] | %12
 [F,B,F] [F,A,F]2 [F,DF] | [F,CF]/[F,CF]/[F,A,F] [A,CF][K:bass][F,DF] |[M:3/8] [C,C] [C,C]2 | %15
[M:1/8] [F,C] |[M:2/4] [E,C][E,C] [F,C][F,C] | %17
[M:9/16] [B,,B,][B,,B,]/-[B,,B,]/[F,A,F]-[F,A,F]/[D,=B,] |[M:2/4] [C,C][C,A,] C,C, | %19
[M:7/16] C,-<C,F,3/2 |] %20

